src/svg/grid.svg

<!-- Generated by IcoMoon.io -->
<svg version="1.1" xmlns="http://www.w3.org/2000/svg" width="32" height="32" viewBox="0 0 32 32">
<title>grid</title>
<path d="M30 32h-10c-1.105 0-2-0.895-2-2v-10c0-1.105 0.895-2 2-2h10c1.105 0 2 0.895 2 2v10c0 1.105-0.895 2-2 2zM30 20h-10v10h10v-10zM30 14h-10c-1.105 0-2-0.896-2-2v-10c0-1.105 0.895-2 2-2h10c1.105 0 2 0.895 2 2v10c0 1.104-0.895 2-2 2zM30 2h-10v10h10v-10zM12 32h-10c-1.105 0-2-0.895-2-2v-10c0-1.105 0.895-2 2-2h10c1.104 0 2 0.895 2 2v10c0 1.105-0.896 2-2 2zM12 20h-10v10h10v-10zM12 14h-10c-1.105 0-2-0.896-2-2v-10c0-1.105 0.895-2 2-2h10c1.104 0 2 0.895 2 2v10c0 1.104-0.896 2-2 2zM12 2h-10v10h10v-10z"></path>
</svg>

<svg xmlns="http://www.w3.org/2000/svg" xmlns:xlink="http://www.w3.org/1999/xlink" preserveAspectRatio="xMidYMid" width="32" height="32" viewBox="0 0 32 32">
  <defs>
    <style>
      .cls-1 {
        fill: #1b1b1b;
        fill-rule: evenodd;
      }
    </style>
  </defs>
  <path d="M30.000,32.000 L20.000,32.000 C18.897,32.000 18.000,31.103 18.000,30.000 L18.000,20.000 C18.000,18.897 18.897,18.000 20.000,18.000 L30.000,18.000 C31.103,18.000 32.000,18.897 32.000,20.000 L32.000,30.000 C32.000,31.103 31.103,32.000 30.000,32.000 ZM20.000,20.000 L20.000,30.000 L29.997,30.000 L30.000,20.000 L20.000,20.000 ZM30.000,14.000 L20.000,14.000 C18.897,14.000 18.000,13.103 18.000,12.000 L18.000,2.000 C18.000,0.897 18.897,-0.000 20.000,-0.000 L30.000,-0.000 C31.103,-0.000 32.000,0.897 32.000,2.000 L32.000,12.000 C32.000,13.103 31.103,14.000 30.000,14.000 ZM20.000,2.000 L20.000,12.000 L29.997,12.000 L30.000,2.000 L20.000,2.000 ZM12.000,32.000 L2.000,32.000 C0.897,32.000 -0.000,31.103 -0.000,30.000 L-0.000,20.000 C-0.000,18.897 0.897,18.000 2.000,18.000 L12.000,18.000 C13.103,18.000 14.000,18.897 14.000,20.000 L14.000,30.000 C14.000,31.103 13.103,32.000 12.000,32.000 ZM2.000,20.000 L2.000,30.000 L11.997,30.000 L12.000,20.000 L2.000,20.000 ZM12.000,14.000 L2.000,14.000 C0.897,14.000 -0.000,13.103 -0.000,12.000 L-0.000,2.000 C-0.000,0.897 0.897,-0.000 2.000,-0.000 L12.000,-0.000 C13.103,-0.000 14.000,0.897 14.000,2.000 L14.000,12.000 C14.000,13.103 13.103,14.000 12.000,14.000 ZM2.000,2.000 L2.000,12.000 L11.997,12.000 L12.000,2.000 L2.000,2.000 Z" class="cls-1"/>
</svg>
